!!!!SEGMENT: 028-1-BH-016.krn
!!!COM: Chopin, Fryderyk
!!!OTL: Preludium No. 16
!!!OPS: Op. 28
!!!PTL: Vingt-quatre PRELUDES pour le Piano
!!!PPR: Breitkopf & Härtel
!!!PPP: Leipzig
!!!NIFC-rismID: 1001013140
!!!NIFC-shelfmark: PL-Wbfc 4372/n
**kern	**kern	**fing	**dynam
*part1	*part1	*	*part1
*staff2	*staff1	*	*S
*clefF4	*clefG2	*	*
*k[b-e-a-d-g-]	*k[b-e-a-d-g-]	*	*
*b-:	*b-:	*	*
*M2/2	*M2/2	*	*
*met(c|)	*met(c|)	*	*
*MM188	*MM188	*	*
=1	=1	=1	=1
!LO:TUP:a	!LO:TUP:a	!	!
6FF 6FFF	(>6gg- 6an 6e-	.	f
6c 6F 6C	6ff 6a 6e-	.	.
6c 6F 6C	6een 6a 6e-	.	.
!LO:TUP:a	!LO:TUP:b	!	!
6c 6F 6C	6ee-X 6a 6e-	.	.
6c 6F 6C	6dd- 6a 6e-	.	.
6c 6F 6C	6cc 6a 6e-)	.	.
==2;<	==2;>	==2;>	==2;>
!	!LO:TX:a:B:t=Presto con fuoco.	!	!
*ped	*	*	*
(>8BB-L	(>16ffLL	.	.
.	16ee-	.	<
8d-J 8F)	16cc	.	.
.	16dd-JJ	.	.
8r	16fLL	.	.
.	16an	.	.
8FF	16b-	.	.
.	16ccJJ	.	.
(>8BB-L	16dd-LL	.	.
.	16ee-	.	.
8d-J 8F)	16ff	.	.
.	16ggnJJ	.	.
8r	16aanLL	.	.
.	16bb-	.	.
8FF	16ccc	.	.
.	16ddd-JJ	.	.
=3	=3	=3	=3
*	*8va	*	*
(>8BB-L	16eee-LL	.	.
.	16fff	.	.
8d-J 8F)	16gggn	.	.
.	16aaanJJ	.	.
8r	16bbb-LL	.	.
.	16cccc	.	.
8FF	16dddd-	.	.
.	16eeee-JJ	.	.
(>8BB-L	16eeeenLL	.	.
.	16ffff	.	.
8d-J 8F)	16eeee-X	.	.
.	16dddd-JJ	.	.
8r	16ccccLL	.	.
.	16bbb-	.	.
8FF	16aaany	.	.
.	16bbb-JJ	.	.
.	.	.	[
!!LO:LB:g=original
=4	=4	=4	=4
(>8BB-L	16aaa-XLL	.	.
.	16ggg-	.	.
8d-J 8F)	16fff	.	.
.	16eeenJJ	.	.
8r	16fffLL	.	.
.	16eee-X	.	.
8FF	16ddd-	.	.
.	16cccJJ	.	.
*	*X8va	*	*
!	!LO:TX:a:B:t=loco	!	!
(>8BB-L	16bb-LL\	.	>
.	16aan	.	.
8d-J 8F)	16bb-	.	.
.	16aa-XJJ	.	.
8r	16gg-LL	.	.
.	16ff	.	.
8FF	16ee-	.	.
*Xped	*	*	*
.	16dd-JJ	.	.
.	.	.	]
=5	=5	=5	=5
*ped	*	*	*
(>8BB-L	16ccLL	.	<
.	16dd-	.	.
8e-J 8G- 8E-)	16ee-	.	.
.	16ffJJ	.	.
8r	16gg-LL	.	.
.	16aa-	.	.
8BBB-	16bb-	.	.
.	16cccJJ	.	.
.	.	.	[
(>8BB-L	16bb-LL	.	.
.	16aa-	.	.
8e-J 8G- 8E-)	16gg-	.	.
.	16ffJJ	.	.
8r	16ee-LL	.	.
.	16dd-	.	.
8BBB-	16cc	.	.
.	16dd-JJ	.	.
=6	=6	=6	=6
(>8BB-L	16gg-LL	.	.
.	16ddn	.	.
8e-J 8G- 8E-)	16ff	.	.
.	16ee-JJ	.	.
8r	16ccLL	.	<
.	16g-	.	.
8BBB-	16bn	.	.
.	16ccJJ	.	.
(>8BB-L	16dd-XLL	.	.
.	16cc	.	.
8e-J 8G- 8E-)	16ddn	.	.
.	16ee-JJ	.	.
8r	16ffLL	.	.
.	16ee-	.	.
8BBB-	16een	.	.
.	16ffJJ	.	.
!!LO:LB:g=original
=7	=7	=7	=7
(>8BB-L	16aa-LL	.	.
.	16gg-	.	.
8e-J 8G- 8E-)	16aan	.	.
.	16bb-JJ	.	.
*	*8va	*	*
8r	16ddd-LL	.	.
.	16ccc	.	.
8BBB-	16ddd-	.	.
.	16dddnJJ	.	.
(>8BB-L	16fffLL	.	.
.	16eee-	.	.
8e-J 8G- 8E-)	16eeen	.	.
.	16fffJJ	.	.
8r	16aaanyLL	.	.
.	16bbb-	.	.
8BB-	16aaa-	.	.
*Xped	*	*	*
.	16gggnJJ	.	[
=8	=8	=8	=8
*ped	*	*	*
(>8AAnL	16ggg-XLL	.	.
.	16ffff	.	.
8e-J 8G-)	16eeee-	.	.
.	16eee-JJ	.	.
8r	16dddd-LL	.	.
.	16cccc	.	.
8AAAn	16ccc	.	.
.	16bbb-JJ	.	.
(>8AAL	16aaanLL	.	>
.	16aan	.	.
8e-J 8G-)	16aaa-X	.	.
.	16ggg-JJ	.	.
8r	16gg-LL	.	.
.	16fff	.	.
8AA	16eee-	.	.
*Xped	*	*	*
.	16gg-JJ	.	]
=9	=9	=9	=9
*ped	*	*	*
(>8BB-L	16ffLL\	.	>
.	16eee-	.	.
8d-J 8F)	16ddd-	.	.
.	16ffJJ	.	.
*	*X8va	*	*
!	!LO:TX:a:B:t=loco	!	!
8r	16ddd-LL	.	.
*Xped	*	*	*
.	16ccc	.	.
(>8BB-	16ee-	.	.
.	16cccJJ	.	.
*ped	*	*	*
8D-L	16dd-LL	.	.
.	16bb-	.	.
8fJ 8B- 8F)	16aa-	.	.
.	16ccJJ	.	.
8r	16aa-LL	.	.
.	16gg-	.	.
(>8D-	16b-	.	.
.	16gg-JJ	.	]
*Xped	*	*	*
.	.	.	.
!!LO:LB:g=original
=10	=10	=10	=10
*ped	*	*	*
8E-L	16anLL	.	.
.	16b-	.	.
8g-J 8An)	16cc	.	.
.	16dd-JJ	.	.
!	!LO:TX:Bi:b:t=cres_:problem:dynamics with extention lines	!	!
!	!	!	!LO:HP:Bi:t=cres:ext=ud
8r	16ee-LL	.	<
*Xped	*	*	*
.	16een	.	.
(>8E-	16ff	.	.
.	16gg-JJ	.	.
*ped	*	*	*
8D-L	16eeLL	.	.
.	16ff	.	.
8fJ 8B- 8F)	16ddn	.	.
.	16ee-XJJ	.	.
8r	16ccLL	.	.
.	16dd-X	.	.
*Xped	*	*	*
(>8D-	16cc	.	.
.	16b-JJ	.	.
=11	=11	=11	=11
8E-L	16anLL	.	.
.	16b-	.	.
8g-J 8An)	16cc	.	.
.	16dd-JJ	.	.
8r	16ee-LL	.	.
.	16een	.	.
(>8E-	16ff	.	.
.	16gg-JJ	.	.
8D-L	16eeLL	.	.
.	16ff	.	.
8fJ 8B- 8F)	16ddn	.	.
.	16ee-XJJ	.	.
8r	16ccLL	.	.
.	16dd-X	.	.
(>8D-	16cc	.	.
.	16b-JJ)	.	.
=12	=12	=12	=12
*ped	*	*	*
8FL	(>16bnLL	.	.
.	16cc	.	.
8a-J 8Bn)	16ddn	.	.
.	16ee-JJ	.	.
8r	16eenLL	.	.
.	16ff	.	.
*Xped	*	*	*
.	.	.	.
(>8F	16ggn	.	.
.	16aa-JJ	.	.
*ped	*	*	*
8E-L	16ff#XLL	.	.
.	16gg	.	.
8gnJ 8c 8Gn)	16ee	.	.
.	16ffnJJ	.	.
8r	16ddLL	.	.
.	16ee-X	.	.
*Xped	*	*	*
(>8E-	16dd	.	.
.	16ccJJ)	.	.
!!LO:LB:g=original
=13	=13	=13	=13
*ped	*	*	*
8FL	(>16bnLL	.	.
.	16cc	.	.
8a-J 8Bn)	16ddn	.	.
.	16ee-JJ	.	.
8r	16eenLL	.	.
.	16ff	.	.
*Xped	*	*	*
.	.	.	.
(>8F	16ggn	.	.
.	16aa-JJ	.	.
*ped	*	*	*
8E-L	16ff#XLL	.	.
.	16gg	.	.
8gnJ 8c 8Gn)	16ee	.	.
.	16ffnJJ	.	.
8r	16ddLL	.	.
.	16ee-X	.	.
*Xped	*	*	*
.	.	.	.
(>8E-	16dd	.	.
.	16ccJJ)	.	.
=14	=14	=14	=14
*ped	*	*	*
8FL	(>16dd-XLL	.	.
.	16ee-	.	.
8a-J 8d- 8A-)	16ff	.	.
.	16gg-JJ	.	.
8r	16aa-LL	.	.
.	16bb-	.	.
*Xped	*	*	*
.	.	.	.
(>8F	16bbn	.	.
.	16cccJJ	.	.
*ped	*	*	*
8G-L	16ccc#XLL	.	.
.	16dddn	.	.
8anJ 8c 8An)	16fff	.	.
.	16eee-JJ	.	.
8r	16cccnLL	.	.
.	16aan	.	.
*Xped	*	*	*
(>8G-	16gg-	.	.
.	16ee-JJ	.	[
=15	=15	=15	=15
*ped	*	*	*
8FL	16dd-LL	.	.
.	16ee-	.	.
8a-J 8d- 8A-)	16ff	.	.
.	16gg-JJ	.	.
8r	16aa-LL	.	.
.	16bb-	.	.
.	.	.	>
*Xped	*	*	*
(>8F	16bbn	.	.
.	16cccJJ	.	.
*ped	*	*	*
8EnL	16ddd-LL	.	.
.	16ccc	.	.
8gnJ 8d- 8B-)	16eee-	.	.
.	16ddd-JJ	.	.
8r	16bb-XLL	.	.
.	16ggn	.	.
*Xped	*	*	*
.	.	.	.
(>8E	16een	.	.
.	16dd-JJ	.	]
!!LO:LB:g=original
=16	=16	=16	=16
*ped	*	*	*
8E-XL	16ccLL	.	.
.	16dd-	.	.
8g-XJ 8An)	16ddn	.	.
.	16ee-JJ	.	.
8r	16eenLL	.	.
.	16ff	.	.
*Xped	*	*	*
(>8E-	16gg-	.	.
.	16ggnJJ	.	.
*ped	*	*	*
8D-L	16aa-LL	.	.
.	16aan	.	>
8fJ 8B- 8F)	16ccc	.	.
.	16bb-JJ	.	.
4r	16gg-XLL	.	.
.	16ff	.	.
*Xped	*	*	*
.	16ee-X	.	.
.	16dd-XJJ	.	.
.	.	.	]
=17	=17	=17	=17
*ped	*	*	*
8FF	16ccLL/	.	.
.	16b-	.	.
8r	16an	.	.
.	16ccJJ	.	.
4e- 4An 4E- 4C	16g-LL	.	.
.	16f	.	<
.	16en	.	.
.	16fJJ	.	.
2r	16g-LL	.	.
.	16f	.	.
.	16b-	.	.
.	16aJJ	.	.
.	16dd-LL	.	.
.	16cc	.	.
*Xped	*	*	*
.	16aa-X	.	.
.	16gg-JJ)	.	.
.	.	.	[
!!LO:PB:g=original
=18	=18	=18	=18
!	!	!	!LO:DY:rj
8BB-L 8BBB-	(>16ffLL	.	ff
.	16cc	.	.
8d-J 8F 8D-	16ee-	.	.
.	16dd-JJ	.	.
.	.	.	<
8r	16fLL	.	.
.	16an	.	.
(<8FF 8FFF	16b-	.	.
.	16ccJJ	.	.
8BB-L 8BBB-)	16dd-LL	.	.
.	16ee-	.	.
8d-J 8F 8D-	16ff	.	.
.	16ggnJJ	.	.
8r	16aanLL	.	.
.	16bb-	.	.
(<8FF 8FFF	16ccc	.	.
.	16ddd-JJ	.	[
=19	=19	=19	=19
*	*8va	*	*
8BB-L 8BBB-)	16eee-LL	.	.
.	16fff	.	.
8d-J 8F 8D-	16gggn	.	.
.	16aaanJJ	.	.
8r	16bbb-LL	.	.
.	16cccc	.	.
(<8FF 8FFF	16dddd-	.	.
.	16eeee-JJ	.	.
8BB-L 8BBB-)	16eeeenLL	.	.
.	16ffff	.	.
8d-J 8F 8D-	16eeee-X	.	.
.	16dddd-JJ	.	.
8r	16ccccLL	.	.
.	16bbb-	.	.
(<8FF 8FFF	16aaa	.	.
.	16bbb-JJ	.	.
=20	=20	=20	=20
8BB-L) 8BBB-	16aaa-XLL	.	>
.	16ggg-	.	.
8d-J 8F 8D-	16fff	.	.
.	16eeenJJ	.	.
8r	16fffLL	.	.
.	16eee-X	.	.
(<8FF 8FFF	16ddd-	.	.
.	16cccJJ	.	.
*	*X8va	*	*
!	!LO:TX:a:B:t=loco.	!	!
8BB-L) 8BBB-	16bb-LL\	.	.
.	16aan	.	.
8d-J 8F 8D-	16bb-	.	.
.	16aa-XJJ	.	.
8r	16gg-LL	.	.
.	16ff	.	]
(<8FF 8FFF	16ee-	.	.
.	16dd-JJ	.	.
!!LO:LB:g=original
=21	=21	=21	=21
8BB-L) 8BBB-	16ccLL	.	<
.	16dd-	.	.
8e-J 8G- 8E-	16ee-	.	.
.	16ffJJ	.	.
8r	16gg-LL	.	.
.	16aa-	.	.
(<8FF 8FFF	16bb-	.	.
.	16cccJJ	.	.
8BB-L) 8BBB-	16bb-LL	.	.
.	16aa-	.	.
8e-J 8G- 8E-	16gg-	.	.
.	16ffJJ	.	.
8r	16ee-LL	.	[
.	16dd-	.	.
(<8FF 8FFF	16cc	.	.
.	16ee-JJ	.	.
=22	=22	=22	=22
8BB--L 8BBB--)	16gg-LL	.	.
.	16ddn	.	.
8e-J 8G- 8E-	16ff-X	.	.
.	16ee-JJ	.	.
8r	16ccLL	.	.
.	16g-	.	.
(<8EE- 8EEE-	16b-	.	.
.	16ccJJ	.	.
.	.	.	.
8BB--L 8BBB--)	16dd-XLL	.	<
.	16cc	.	.
8e-J 8G- 8E-	16ddn	.	.
.	16ee-JJ	.	.
8r	16ff-LL	.	.
.	16ee-	.	.
(<8EE-X 8EEE-X	16een	1	.
.	16ffnJJ	.	[
=23	=23	=23	=23
*	*ped	*	*
!LO:TX:t=P:ped. przed nutą:problem	!	!	!
8BB--L 8BBB--)	16aa-LL	.	<
.	16gg-	1	.
8e-J 8G- 8E-	16bb-	.	.
.	16cccJJ	.	.
*	*8va	*	*
8r	16ddd-XLL	.	.
.	16ccc	.	.
(<8EE- 8EEE-	16dddn	.	.
.	16eee-JJ	.	.
8BB--L 8BBB--)	16fffLL	.	.
.	16eee-	.	.
8e-J 8G- 8E-	16eeen	.	.
.	16fffJJ	.	.
8r	16aaa-LL	.	.
.	16bbb-X	.	.
(<8EE- 8EEE-	16aaa-	.	.
*	*Xped	*	*
.	16gggnJJ	.	.
!!LO:LB:g=original
=24	=24	=24	=24
*	*ped	*	*
!LO:TX:t=P:problem:mixed beam	!	!	!
!LO:TX:t=P:ped. przed nutą:problem	!	!	!
8AA-L/ 8AAA-/)	16ggg-LL	.	.
.	16ffff	.	.
8g-J\ 8E-\	16eeee-	.	.
.	16ggg-JJ	.	.
.	.	.	[
8r	16eeee-LL	.	.
.	16dddd-	.	.
8EE- 8EEE-	16fff	.	>
.	16dddd-JJ	.	.
!LO:TX:t=P:problem:mixed beam	!	!	!
8AA-L/ 8AAA-/	16ccccLL	.	.
.	16eee-	.	.
8g-J\ 8c\ 8E-\	16cccc	.	.
.	16bbb-JJ	.	.
8r	16ddd-LL	.	.
.	16bbb-	.	.
(>8AAA-	16aaa-	.	.
*	*Xped	*	*
.	16cccJJ	.	.
=25	=25	=25	=25
*	*ped	*	*
8AA-L)\	16aaa-LL	.	.
.	16ggg-	.	.
8fJ 8d- 8F	16bb-	.	.
.	16ggg-JJ	.	.
8r	16fffLL	.	.
.	16aa-	.	.
(>8AAA-	16fff	.	.
.	16eee-JJ	.	.
8AA-L)	16ggg-LL	.	.
*	*X8va	*	*
!	!LO:TX:a:B:t=loco	!	!
.	16eee-	.	.
8d-J 8F	16ddd-	.	.
.	16ffJJ	.	.
8r	16bb-LL	.	.
.	16aa-	.	.
8AAA-	16ff	.	.
*	*Xped	*	*
.	16dd-JJ	.	]
=26	=26	=26	=26
*	*ped	*	*
(>8AA-L	16ccLL	.	<
.	16dd-	.	.
8cJ 8G- 8E-)	16ee-	.	.
.	16eenJJ	.	.
8r	16ffLL	.	.
*	*Xped	*	*
.	16gg-	.	.
*	*ped	*	*
8AAA-	16aa-	.	.
.	16bb--JJ	.	.
8AA-L	16ggnLL	.	.
.	16aa-	.	.
8d-J 8F-X	16ee	.	[
.	16ff-XJJ	.	>
8r	16a-LL	.	.
*	*Xped	*	*
.	.	.	.
.	16ff-	.	.
*	*ped	*	*
8AAA-	16ee	.	.
.	16dd-JJ	.	]
!!LO:LB:g=original
=27	=27	=27	=27
(>8AA-L	16ccLL	.	<
.	16dd-	.	.
8cJ 8G- 8E-)	16ee-	.	.
.	16eenJJ	.	.
*	*Xped	*	*
8r	16ffLL	.	.
.	16gg-	.	.
*	*ped	*	*
(>8AA-	16aa-	.	.
.	16bb--JJ	.	.
8D-L	16ggnLL	.	.
.	16aa-	.	.
8d-J 8F-X)	16ee	.	.
.	16ff-XJJ	.	.
.	.	.	[
8r	16a-LL	.	>
.	16ff-	.	.
*	*Xped	*	*
(>8GGn	16dd-	.	.
.	16cc-XJJ)	.	.
.	.	.	]
=28	=28	=28	=28
*	*ped	*	*
!LO:TX:t=P:problem:mixed beam	!	!	!
8FF#XL/	(>16a#XLL	.	<
.	16bn	.	.
8enJ\ 8A#X\ 8F#X\)	16cc#X	.	.
.	16ddnJJ	.	.
8r	16dd#XLL	.	.
.	16een	.	.
(>8FFF#X	16ff#X	.	.
*	*Xped	*	*
.	16ggnJJ	.	.
*	*ped	*	*
!LO:TX:t=P:problem:mixed beam	!	!	!
8FF#L/	16ee#XLL	.	.
.	16ff#	.	.
8dnJ\ 8Bn\ 8F#\)	16dd#X	.	.
.	.	.	[
.	16eenJJ	.	>
8r	16cc#LL	.	.
.	16ddn	.	.
.	.	.	.
(>8FFn	16b	.	.
*	*Xped	*	*
.	16anJJ)	.	.
.	.	.	]
!!LO:LB:g=original
=29	=29	=29	=29
*	*ped	*	*
!LO:TX:t=P:problem:mixed beam	!	!	!
8EEnL/	(>16g#XLL	.	.
.	16an	.	.
8dnJ\ 8G#X\ 8En\)	16bn	.	.
.	16ccJJ	.	.
8r	16cc#XLL	.	.
.	16ddn	.	.
8EEEn	16een	.	.
*	*Xped	*	*
.	16ffJJ	.	.
*	*ped	*	*
!LO:TX:t=P:problem:mixed beam	!	!	!
8EEL/	16dd#XLL	.	.
.	16ee	.	.
8cnJ\ 8An\ 8E\	16cc#X	.	.
.	16ddnJJ	.	.
8r	16bLL	.	>
.	16ccn	.	.
8EEny 8EEEn	16b	.	.
*	*Xped	*	*
.	16aJJ)	.	]
=30	=30	=30	=30
*	*ped	*	*
8FF 8FFF	(>16g#XLL	.	.
!	!LO:TX:a:Bi:t=stretto.	!	!
.	16an	.	.
8r	16dd-X	.	.
.	16ccJJ	.	.
4e-X: 4F 4C	16b-LL	.	.
.	16a	.	.
*	*Xped	*	*
.	16gg-X	.	.
.	16ffJJ	.	.
*ped	*	*	*
4d-: 4F 4BB-	16ee-LL	.	.
.	16dd-	.	.
.	16ccc	.	.
*Xped	*	*	*
.	.	.	.
.	16bb-JJ	.	.
*ped	*	*	*
4g-: 4B- 4E-	16aa-LL	.	.
.	16gg-	.	.
.	16ff	.	.
*Xped	*	*	*
.	16ee-JJ	.	.
!!LO:LB:g=original
=31	=31	=31	=31
*ped	*	*	*
4c: 4G- 4AA-	16dd-LL	.	.
.	16cc	.	.
.	16bb-	.	.
*Xped	*	*	*
.	.	.	.
.	16aa-JJ	.	.
*ped	*	*	*
4f: 4A- 4D-	16gg-LL	.	.
.	16ff	.	.
.	16ee-	.	.
*Xped	*	*	*
.	16dd-JJ	.	.
*ped	*	*	*
4B-: 4D- 4GG-	16ccLL	.	.
.	16b-	.	.
.	16aa-	.	.
*Xped	*	*	*
.	16gg-JJ	.	.
*ped	*	*	*
4e-: 4G- 4C	16ffLL	.	.
.	16ee-	.	.
.	16dd-	.	.
*Xped	*	*	*
.	16ccJJ	.	.
=32	=32	=32	=32
4d- 4B- 4F 4D-	16b-LL	.	.
.	16an	.	.
.	16a-X	.	.
.	16gnJJ	.	.
!LO:TX:a:t=P:problem:diminuendolike accent	!	!	!
4c^> 4B- 4G-X 4E-	16a-XLL	.	.
.	16g	.	.
.	16g-X	.	.
.	16fJJ	.	.
4r	16gnLL	.	.
.	16g-X	.	.
.	16f	.	.
.	16enJJ	.	.
(>16G-LL	16g-LL	.	>
16F	16f	.	.
16En	16e	.	.
16E-XJJ	16e-XJJ	.	]
!!LO:PB:g=original
=33	=33	=33	=33
16FLL	16fLL	.	>
16En	16en	.	.
16E-X	16e-X	.	.
16DnJJ	16dnJJ	.	]
16EnLL	16enLL	.	>
16E-X	16e-X	.	.
16D	16d	.	.
16D-XJJ	16d-XJJ	.	]
16E-LL	16e-LL	.	>
16Dn	16dn	.	.
16D-X	16d-X	.	.
16CJJ	16cJJ	.	]
16E-LL\	16e-LL	.	>
16D-	16d-	.	.
16C	16c	.	.
16BB-JJ)	16B-JJ)	.	]
=34	=34	=34	=34
*ped	*	*	*
!	!LO:TX:a:Bi:t=sempre_ più_ animato.:dur=9q:ext=ud:problem:text with extention lines	!	!
(<8EE-L	(>16AnLL	.	<
.	16B-	.	.
8G-J 8AAn)	16c	.	.
.	16d-JJ	.	.
8r	16e-LL	.	.
.	16en	.	.
(<8EE-	16f	.	.
*Xped	*	*	*
.	16g-JJ	.	.
.	.	.	[
*ped	*	*	*
8DD-L	16eLL	.	>
.	16f	.	.
8FJ 8BB-)	16dn	.	.
.	16e-XJJ	.	.
8r	16cLL	.	.
.	16d-X	.	.
(<8DD-	16c	.	.
*Xped	*	*	*
.	16B-JJ	.	]
!!LO:LB:g=original
=35	=35	=35	=35
*ped	*	*	*
8EE-L	16AnLL	.	<
.	16B-	.	.
8G-J 8AAn)	16c	.	.
.	16d-JJ	.	.
8r	16e-LL	.	.
*Xped	*	*	*
.	16en	.	.
(<8EE-	16f	.	.
.	.	.	[
.	16g-JJ	.	>
*ped	*	*	*
8DD-L	16eLL	.	.
.	16f	.	.
8FJ 8BB-)	16dn	.	.
.	16e-XJJ	.	.
8r	16cLL	.	.
.	16d-X	.	.
8DD-	16c	.	.
*Xped	*	*	*
.	16B-JJ)	.	]
=36	=36	=36	=36
*ped	*	*	*
(<8EE-L	(>16cLL	.	<
.	16d-	.	.
8G-J 8BB-)	16e-	.	.
.	16fJJ	.	.
8r	16g-LL	.	.
.	16cc	.	.
*Xped	*	*	*
.	.	.	.
(>8EE-	16b-	.	.
.	16cJJ	.	.
.	.	.	[
*ped	*	*	*
8FFL\	16B-LL	.	<
.	16c	.	.
8B-J 8D-)	16d-	.	.
.	16e-JJ	.	.
8r	16fLL	.	.
.	16cc	.	.
8FFF	16b-	.	.
*Xped	*	*	*
.	16g-JJ)	.	.
.	.	.	[
=37	=37	=37	=37
*ped	*	*	*
(>8FFL\	(>16enLL	.	.
.	16f	.	.
8AnJ) 8E-	16g-	.	.
.	16fJJ	.	.
*Xped	*	*	*
8r	16b-LL	.	.
.	16an	.	.
*ped	*	*	*
(>8FF	16gg-	.	.
.	16ffJJ	.	.
8BB-L	16ee-XLL	.	.
.	16dd-	.	.
8d-J 8F)	16b-	.	.
.	16fJJ	.	.
8r	16eLL	.	.
*Xped	*	*	*
.	16d-	.	.
(<8DD-	16B-	.	.
.	16FJJ)	.	.
!!LO:LB:g=original
=38	=38	=38	=38
*ped	*	*	*
8EE-L	(>16AnLL	.	.
.	16B-	.	.
8G-J 8AAn)	16c	.	.
.	16d-JJ	.	.
8r	16e-LL	.	.
*Xped	*	*	*
.	16en	.	.
(<8EE-	16f	.	.
.	16g-JJ	.	.
*	*ped	*	*
8DD-L	16eLL	.	.
.	16f	.	.
8FJ 8BB-)	16dn	.	.
.	16e-XJJ	.	.
8r	16cLL	.	.
.	16d-	.	.
(<8DD-	16c	.	.
*	*Xped	*	*
.	16B-JJ)	.	.
=39	=39	=39	=39
*	*ped	*	*
8EE-L	(>16AnLL	.	.
.	16B-	.	.
8G-J 8AAn)	16c	.	.
.	16d-JJ	.	.
8r	16e-LL	.	.
.	16en	.	.
*	*Xped	*	*
.	.	.	.
(<8EE-	16f	.	.
.	16g-JJ	.	.
*	*ped	*	*
8DD-L	16eLL	.	.
.	16f	.	.
8FJ 8BB-)	16dn	.	.
.	16e-XJJ	.	.
8r	16cLL	.	.
.	16d-	.	.
8DD-	16c	.	.
*	*Xped	*	*
.	.	.	.
.	16B-JJ)	.	.
!!LO:LB:g=original
=40	=40	=40	=40
*ped	*	*	*
4G- 4C-X 4EE-	(>16c-XLL	.	.
.	16d-	.	.
.	16e-	.	.
.	16f-XJJ	.	.
4r	16g-LL	.	.
.	16a-	.	.
.	16b-	.	.
.	16cc-XJJ	.	.
4g- 4c-X 4G- 4E-	16dd-LL	.	.
.	16ee-	.	.
.	16ff-X	.	.
*Xped	*	*	*
.	.	.	.
.	16gg-JJ	.	.
*ped	*	*	*
4f-X 4B-X 4G- 4D-	16aa-LL	.	.
.	16bb-	.	.
.	16ccc-X	.	.
*Xped	*	*	*
.	.	.	.
.	16ddd-JJ	.	.
=41	=41	=41	=41
*^	*	*	*
2e-	4G- 4C-X	16fff-XLL	.	.
.	.	16eee-	.	.
.	.	16ccc-X	1	.
.	.	16aa-JJ	4	.
.	4rD	16gg-LL	.	.
.	.	16ee-	.	.
.	.	16cc-X	.	.
.	.	16a-JJ	.	.
2ryy	2r	16g-LL	.	.
.	.	16e-	.	.
.	.	16c-X	.	.
.	.	16A-<JJ	.	.
.	.	16G-<LL	.	.
.	.	16E-<	.	.
.	.	16C-X<	.	.
.	.	16AA-<JJ)	.	.
*v	*v	*	*	*
!!LO:LB:g=original
=42	=42	=42	=42
16EEEnLL	(>16EEn<LL	.	.
16FFF	16FF<	.	.
16BBB-	16BB-<	.	.
16AAAnJJ	16AAn<JJ	.	.
16GGG-LL	16GG-<LL	.	.
16FFF	16FF<	.	.
16DD-	16D-<	.	.
16CCJJ	16C<JJ	.	.
16BBB-LL	16BB-<LL	.	.
16AAA	16AA<	.	.
16GG-	16G-<	.	.
16FFJJ	16F<JJ	.	.
16DD-LL	16D-<LL	.	.
16CC	16C<	.	.
16BB-	16B-<	.	.
16AAnJJ	16An<JJ	.	.
=43	=43	=43	=43
16GG-LL	16G-<LL	.	.
16FF	16F<	.	.
16D-	16d-<	.	.
16CJJ	16c<JJ	.	.
16BB-LL	16B-LL	.	.
16AAn	16An	.	.
16G-	16g-	.	.
16FJJ	16fJJ	.	.
16D-LL	16d-LL	.	.
16C	16c	.	.
16B-	16b-	.	.
16AnJJ	16anJJ	.	.
16G-LL	16g-LL	.	.
16F	16f	.	.
16d-	16dd-	.	.
16cJJ	16ccJJ	.	.
!!LO:LB:g=original
=44	=44	=44	=44
*ped	*	*	*
16B-LL	16b-LL/	.	.
16An	16an	.	.
16g->	16gg-	.	.
!LO:TX:t=P:klucz wiolinowy nakłada się na belkę:problem	!	!	!
16f>JJ	16ffJJ	.	.
*clefG2	*	*	*
16d-LL	16dd-LL	.	.
16c	16cc	.	.
16b-	16bb-	.	.
16anJJ	16aanJJ	.	.
16g-LL	16gg-LL	.	.
16f	16ff	.	.
16dd-	16ddd-	.	.
16ccJJ	16cccJJ	.	.
16b-LL	16bb-LL	.	.
16a	16aa	.	.
16gg-	16ggg-	.	.
16ffJJ	16fffJJ	.	.
=45	=45	=45	=45
*	*8va	*	*
16dd-LL	16ddd-LL	.	.
16cc	16ccc	.	.
16bb-	16bbb-	.	.
16aanJJ	16aaanJJ	.	.
16gg-LL	16ggg-LL	.	.
16ff	16fff	.	.
16ddd-	16dddd-	.	.
16cccJJ	16ccccJJ	.	.
8fff	8ffff)	.	.
8r	8r	.	.
*	*X8va	*	*
*clefF4	*	*	*
*Xped	*	*	*
!	!LO:TX:a:B:t=loco.	!	!
4F 4FF	4ff 4an 4e-	.	.
=46	=46	=46	=46
8qBBB-/	.	.	.
*ped	*	*	*
4d- 4F 4BB-	4bb-^< 4b-	.	.
4r	4r	.	.
2r	2r	.	.
!LO:TX:B:b:t=Fine.	!	!	!
.	.	.	.
==	==	==	==
*-	*-	*-	*-
!!title: @{OTL}; @{OPS} @{ONM} publisher: @{PPR}
!!!RDF**kern: > = above
!!!RDF**kern: < = below
!!!RDF**dynam: < = cres , fontstyle = "bold-italic"
!!!ENC: Marta Lawrence
!!!END: 2019-06-02
!!!EED: Emilia Ziętek
!!!EST: revision finished 2019-06-14
!!!EED2: Antoni Szymański
!!!EST2: 2020-04-24
!!!rism-genre: Prelude
!!!rism-key: B-flat minor
!!!rism-opus: op.  28, no. 16
!!!rism-title: Prelude in B-flat minor op.  28, no. 16
!!!rism-permalink: https://opac.rism.info/search?id=1001013140&View=rism
!!!rism-773a-OPR: 1001013083
!!!rism-parent-permalink: https://opac.rism.info/search?id=1001013083&View=rism
